X: 1858
T: Schaefer's Half Figure
B: australian traditional tunes wiki
M:4/4
L:1/8
R: Step Tune
Q: 1/4=100
K:D
V:1 
B2|:"D"ABAF "G"G2FG|"D"ABAF"A7"E2FG|"D"ABAF "G"GFGE|"D"D2E2F2FG|
ABAF "G"G2FG|"D"ABAF"A7"E2FG|"D"ABAF "G"GFGE|1"A"DEFG "A7"ABcd:|2"A"DEFG "A7"ABce||
|:"D"a2af "G"gfgb|"D"a4a2fg|a2af "A"gfae|"D"d2e2"A"f2fg|
"D"a2af "G"gfgb|"D"a4a2fg|a2af "A"gfae|"D"d2e2d2z2:|
% abcbook-tune_id 6342d53ac51caba36fad3f62


% abcbook-boost 0
% abcbook-tablature 
% abcbook-transpose 
% abcbook-lastupdated 1665324388561
% abcbook-soundfonts 
% abcbook-repeats 1
% NFF Book 2010

